src/rounded/icons/fi-rr-dice.svg

<svg id="Layer_1" height="512" viewBox="0 0 24 24" width="512" xmlns="http://www.w3.org/2000/svg" data-name="Layer 1"><path d="m19 24h-14a5.006 5.006 0 0 1 -5-5v-14a5.006 5.006 0 0 1 5-5h14a5.006 5.006 0 0 1 5 5v14a5.006 5.006 0 0 1 -5 5zm-14-22a3 3 0 0 0 -3 3v14a3 3 0 0 0 3 3h14a3 3 0 0 0 3-3v-14a3 3 0 0 0 -3-3zm6 10a1 1 0 1 0 1-1 1 1 0 0 0 -1 1zm-5-5a1 1 0 1 0 1-1 1 1 0 0 0 -1 1zm10 0a1 1 0 1 0 1-1 1 1 0 0 0 -1 1zm-10 10a1 1 0 1 0 1-1 1 1 0 0 0 -1 1zm10 0a1 1 0 1 0 1-1 1 1 0 0 0 -1 1z"/></svg>

<svg id="Layer_1" data-name="Layer 1" xmlns="http://www.w3.org/2000/svg" viewBox="0 0 24 24"><path d="M19,24H5a5.006,5.006,0,0,1-5-5V5A5.006,5.006,0,0,1,5,0H19a5.006,5.006,0,0,1,5,5V19A5.006,5.006,0,0,1,19,24ZM5,2A3,3,0,0,0,2,5V19a3,3,0,0,0,3,3H19a3,3,0,0,0,3-3V5a3,3,0,0,0-3-3Zm6,10a1,1,0,1,0,1-1A1,1,0,0,0,11,12ZM6,7A1,1,0,1,0,7,6,1,1,0,0,0,6,7ZM16,7a1,1,0,1,0,1-1A1,1,0,0,0,16,7ZM6,17a1,1,0,1,0,1-1A1,1,0,0,0,6,17Zm10,0a1,1,0,1,0,1-1A1,1,0,0,0,16,17Z"/></svg>
